; HEADER_BLOCK_START
; generated by OrcaSlicer 2.1.1 on 2024-07-05 at 17:27:14
; total layer number: 58
; filament_density: 1.24
; filament_diameter: 1.75
; max_z_height: 6.99
; HEADER_BLOCK_END

; THUMBNAIL_BLOCK_START

;
; THUMBNAIL_BLOCK_END

; external perimeters extrusion width = 0.25mm
; perimeters extrusion width = 0.30mm
; infill extrusion width = 0.30mm
; solid infill extrusion width = 0.30mm
; top infill extrusion width = 0.30mm
; support material extrusion width = 0.25mm
; first layer extrusion width = 0.30mm

; EXECUTABLE_BLOCK_START
M73 P0 R269
M106 S0
M106 P2 S0
;TYPE:Custom
M190 S50
M104 S220
G1 Z5 F6000
G90 E0
M83
G1 E-1 F600
G1 E8 F300
G1 X85 Y110 Z0.2 F1200
G1 X-110 E15 F2400
G1 Y0 E4 F2400
G1 X-109.6 F2400
G1 Y110 E5 F2400
G92 E0
M106 P3 S255
G90
G21
M83 ; use relative distances for extrusion
; filament start gcode
;right_extruder_material: HS PLA
SET_PRESSURE_ADVANCE ADVANCE=0.1; Override pressure advance value
M106 S0
M106 P2 S0
;LAYER_CHANGE
;Z:0.15
;HEIGHT:0.15
;BEFORE_LAYER_CHANGE
;0.15
G1 E-1 F2100
;AFTER_LAYER_CHANGE
;0.15
;_SET_FAN_SPEED_CHANGING_LAYER
SET_VELOCITY_LIMIT ACCEL=1000
G1 X38.556 Y67.8 F30000
G1 Z.3
G1 Z.15
G1 E1 F2100
;TYPE:Inner wall
;WIDTH:0.3
G1 X38.589 Y67.786 E.00059
G1 X39.655 Y67.598 E.01808
G1 X39.714 Y67.588 E.001
G1 X40.854 Y67.654 E.01908
G1 X41.949 Y67.982 E.01908
G1 X42.938 Y68.553 E.01908
G1 X43.769 Y69.337 E.01908
G1 X44.397 Y70.292 E.01908
G1 X44.788 Y71.365 E.01908
G1 X44.921 Y72.5 E.01908
G1 X44.788 Y73.635 E.01908
G1 X44.397 Y74.708 E.01908
G1 X43.802 Y75.613 E.01808
G1 X43.769 Y75.663 E.001
G1 X42.938 Y76.447 E.01908
G1 X41.949 Y77.018 E.01908
G1 X40.854 Y77.346 E.01908
G1 X39.714 Y77.412 E.01908
G1 X38.648 Y77.224 E.01808
G1 X38.589 Y77.214 E.001
G1 X37.54 Y76.761 E.01908
G1 X36.623 Y76.079 E.01908
G1 X35.889 Y75.204 E.01908
G1 X35.376 Y74.183 E.01908
G1 X35.113 Y73.071 E.01908
G1 X35.113 Y71.929 E.01908
G1 X35.362 Y70.875 E.01808
G1 X35.376 Y70.817 E.001
G1 X35.889 Y69.796 E.01908
G1 X36.623 Y68.921 E.01908
G1 X37.54 Y68.239 E.01908
G1 X38.533 Y67.81 E.01807
G1 X38.662 Y68.046 F30000
;TYPE:Outer wall
G1 F2100
G1 X38.666 Y68.044 E.00007
G1 X39.701 Y67.862 E.01756
G1 X40.808 Y67.92 E.0185
G1 X41.842 Y68.229 E.01804
G1 X42.777 Y68.769 E.01804
G1 X43.563 Y69.51 E.01804
G1 X44.156 Y70.413 E.01804
G1 X44.526 Y71.427 E.01804
G1 X44.651 Y72.5 E.01804
G1 X44.526 Y73.573 E.01804
G1 X44.156 Y74.587 E.01804
G1 X43.579 Y75.466 E.01756
G1 X42.777 Y76.231 E.0185
G1 X41.842 Y76.771 E.01804
G1 X40.808 Y77.08 E.01804
G1 X39.73 Y77.143 E.01804
G1 X38.694 Y76.961 E.01756
G1 X37.674 Y76.528 E.0185
G1 X36.808 Y75.883 E.01804
G1 X36.114 Y75.056 E.01804
G1 X35.629 Y74.091 E.01804
G1 X35.38 Y73.04 E.01804
G1 X35.38 Y71.96 E.01804
G1 X35.623 Y70.937 E.01756
G1 X36.114 Y69.944 E.0185
G1 X36.808 Y69.117 E.01804
G1 X37.674 Y68.472 E.01804
G1 X38.639 Y68.056 E.01755
G1 E-1
;WIPE_START
G1 X38.666 Y68.044
G1 X39.701 Y67.862
G1 X40.62 Y67.91
;WIPE_END
G1 X34.899 Y68.109 Z.45 F30000
G1 X-44.638 Y70.873 Z.45
G1 Z.15
G1 E1 F2100
;TYPE:Inner wall
G1 X-44.626 Y70.823 E.00087
G1 X-44.108 Y69.791 E.01927
G1 X-43.372 Y68.917 E.01908
G1 X-42.455 Y68.236 E.01908
G1 X-41.417 Y67.788 E.01889
G1 X-40.292 Y67.588 E.01908
G1 X-39.14 Y67.655 E.01927
G1 X-38.046 Y67.984 E.01908
G1 X-37.057 Y68.557 E.01908
G1 X-36.227 Y69.342 E.01908
G1 X-35.606 Y70.287 E.01889
G1 X-35.214 Y71.359 E.01908
G1 X-35.08 Y72.494 E.01908
G1 X-35.214 Y73.64 E.01927
G1 X-35.606 Y74.713 E.01908
G1 X-36.227 Y75.658 E.01889
G1 X-37.066 Y76.45 E.01927
G1 X-38.057 Y77.02 E.01908
G1 X-39.152 Y77.347 E.01908
G1 X-40.292 Y77.412 E.01908
G1 X-41.417 Y77.212 E.01908
G1 X-42.455 Y76.764 E.01889
G1 X-43.372 Y76.083 E.01908
G1 X-44.114 Y75.199 E.01927
G1 X-44.622 Y74.188 E.01889
G1 X-44.886 Y73.077 E.01908
G1 X-44.888 Y71.935 E.01908
G1 X-44.643 Y70.898 E.0178
G1 X-44.377 Y70.935 F30000
;TYPE:Outer wall
G1 F2100
G1 X-44.372 Y70.915 E.00035
G1 X-43.882 Y69.94 E.01822
G1 X-43.187 Y69.113 E.01804
G1 X-42.32 Y68.47 E.01803
G1 X-41.339 Y68.046 E.01785
G1 X-40.276 Y67.857 E.01803
G1 X-39.187 Y67.921 E.01822
G1 X-38.153 Y68.232 E.01804
G1 X-37.218 Y68.773 E.01803
G1 X-36.434 Y69.515 E.01803
G1 X-35.847 Y70.408 E.01785
G1 X-35.476 Y71.422 E.01803
G1 X-35.349 Y72.494 E.01804
G1 X-35.476 Y73.578 E.01822
G1 X-35.847 Y74.592 E.01803
G1 X-36.434 Y75.485 E.01785
G1 X-37.227 Y76.234 E.01822
G1 X-38.163 Y76.773 E.01804
G1 X-39.198 Y77.081 E.01803
G1 X-40.276 Y77.142 E.01803
G1 X-41.339 Y76.954 E.01803
G1 X-42.32 Y76.53 E.01785
G1 X-43.187 Y75.887 E.01803
G1 X-43.889 Y75.051 E.01822
G1 X-44.368 Y74.096 E.01785
G1 X-44.619 Y73.046 E.01803
G1 X-44.62 Y71.966 E.01803
G1 X-44.383 Y70.959 E.01727
G1 E-1
;WIPE_START
G1 X-44.372 Y70.915
G1 X-43.882 Y69.94
G1 X-43.327 Y69.279
;WIPE_END
G1 X-43.358 Y63.555 Z.45 F30000
G1 X-44.089 Y-69.77 Z.45
G1 Z.15
G1 E1 F2100
;TYPE:Inner wall
G1 X-44.111 Y-69.796 E.00057
G1 X-44.624 Y-70.817 E.01908
G1 X-44.887 Y-71.929 E.01908
G1 X-44.887 Y-73.071 E.01908
G1 X-44.638 Y-74.125 E.01808
G1 X-44.624 Y-74.183 E.001
G1 X-44.111 Y-75.204 E.01908
G1 X-43.377 Y-76.079 E.01908
G1 X-42.46 Y-76.761 E.01908
G1 X-41.411 Y-77.214 E.01908
G1 X-40.345 Y-77.402 E.01808
G1 X-40.286 Y-77.412 E.001
G1 X-39.146 Y-77.346 E.01908
G1 X-38.051 Y-77.018 E.01908
G1 X-37.062 Y-76.447 E.01908
G1 X-36.231 Y-75.663 E.01908
G1 X-35.603 Y-74.708 E.01908
G1 X-35.212 Y-73.635 E.01908
G1 X-35.079 Y-72.5 E.01908
G1 X-35.212 Y-71.365 E.01908
G1 X-35.603 Y-70.292 E.01908
G1 X-36.231 Y-69.337 E.01908
G1 X-37.062 Y-68.553 E.01908
G1 X-38.051 Y-67.982 E.01908
G1 X-39.146 Y-67.654 E.01908
G1 X-40.286 Y-67.588 E.01908
G1 X-41.411 Y-67.786 E.01908
G1 X-42.46 Y-68.239 E.01908
G1 X-43.377 Y-68.921 E.01908
G1 X-44.073 Y-69.751 E.0181
G1 X-43.884 Y-69.942 F30000
;TYPE:Outer wall
G1 F2100
G1 X-43.886 Y-69.944 E.00005
G1 X-44.371 Y-70.909 E.01804
G1 X-44.62 Y-71.96 E.01804
G1 X-44.62 Y-73.04 E.01804
G1 X-44.377 Y-74.063 E.01756
G1 X-43.886 Y-75.056 E.0185
G1 X-43.192 Y-75.883 E.01804
G1 X-42.326 Y-76.528 E.01804
G1 X-41.334 Y-76.956 E.01804
G1 X-40.299 Y-77.138 E.01756
G1 X-39.192 Y-77.08 E.0185
G1 X-38.158 Y-76.771 E.01804
G1 X-37.223 Y-76.231 E.01804
G1 X-36.437 Y-75.49 E.01804
M73 P0 R268
G1 X-35.844 Y-74.587 E.01804
G1 X-35.474 Y-73.573 E.01804
G1 X-35.349 Y-72.5 E.01804
G1 X-35.474 Y-71.427 E.01804
G1 X-35.844 Y-70.413 E.01804
G1 X-36.437 Y-69.51 E.01804
G1 X-37.223 Y-68.769 E.01804
G1 X-38.158 Y-68.229 E.01804
G1 X-39.192 Y-67.92 E.01804
G1 X-40.27 Y-67.857 E.01804
G1 X-41.334 Y-68.044 E.01804
G1 X-42.326 Y-68.472 E.01804
G1 X-43.192 Y-69.117 E.01804
G1 X-43.868 Y-69.923 E.01757
G1 E-1
;WIPE_START
G1 X-43.886 Y-69.944
G1 X-44.371 Y-70.909
G1 X-44.576 Y-71.778
;WIPE_END
G1 X-38.853 Y-71.68 Z.45 F30000
G1 X44.379 Y-70.263 Z.45
G1 Z.15
G1 E1 F2100
;TYPE:Inner wall
G1 X43.802 Y-69.387 E.01751
G1 X43.769 Y-69.337 E.001
G1 X42.938 Y-68.553 E.01908
G1 X41.949 Y-67.982 E.01908
G1 X40.854 Y-67.654 E.01908
G1 X39.714 Y-67.588 E.01908
G1 X38.589 Y-67.786 E.01908
G1 X37.54 Y-68.239 E.01908
G1 X36.623 Y-68.921 E.01908
G1 X35.889 Y-69.796 E.01908
G1 X35.376 Y-70.817 E.01908
G1 X35.113 Y-71.929 E.01908
G1 X35.113 Y-73.071 E.01908
G1 X35.362 Y-74.125 E.01808
G1 X35.376 Y-74.183 E.001
G1 X35.889 Y-75.204 E.01908
G1 X36.623 Y-76.079 E.01908
G1 X37.54 Y-76.761 E.01908
G1 X38.589 Y-77.214 E.01908
G1 X39.655 Y-77.402 E.01808
G1 X39.714 Y-77.412 E.001
G1 X40.854 Y-77.346 E.01908
G1 X41.949 Y-77.018 E.01908
G1 X42.938 Y-76.447 E.01908
G1 X43.769 Y-75.663 E.01908
G1 X44.397 Y-74.708 E.01908
G1 X44.788 Y-73.635 E.01908
G1 X44.921 Y-72.5 E.01908
G1 X44.788 Y-71.365 E.01908
G1 X44.397 Y-70.292 E.01908
G1 X44.392 Y-70.284 E.00015
G1 X44.155 Y-70.41 F30000
;TYPE:Outer wall
G1 F2100
G1 X43.579 Y-69.534 E.01751
G1 X42.777 Y-68.769 E.0185
G1 X41.842 Y-68.229 E.01804
G1 X40.808 Y-67.92 E.01804
G1 X39.73 Y-67.857 E.01804
G1 X38.666 Y-68.044 E.01804
G1 X37.674 Y-68.472 E.01804
G1 X36.808 Y-69.117 E.01804
G1 X36.114 Y-69.944 E.01804
G1 X35.629 Y-70.909 E.01804
G1 X35.38 Y-71.96 E.01804
G1 X35.38 Y-73.04 E.01804
G1 X35.623 Y-74.063 E.01756
G1 X36.114 Y-75.056 E.0185
G1 X36.808 Y-75.883 E.01804
G1 X37.674 Y-76.528 E.01804
G1 X38.666 Y-76.956 E.01804
G1 X39.701 Y-77.138 E.01756
G1 X40.808 Y-77.08 E.0185
G1 X41.842 Y-76.771 E.01804
G1 X42.777 Y-76.231 E.01804
G1 X43.563 Y-75.49 E.01804
G1 X44.156 Y-74.587 E.01804
G1 X44.526 Y-73.573 E.01804
G1 X44.651 Y-72.5 E.01804
G1 X44.526 Y-71.427 E.01804
G1 X44.164 Y-70.434 E.01766
G1 E-1
;WIPE_START
G1 X43.579 Y-69.534
G1 X42.908 Y-68.894
;WIPE_END
G1 X47.999 Y-71.512 Z.45 F30000
G1 X49.582 Y-72.327 Z.45
G1 Z.15
G1 E1 F2100
;TYPE:Inner wall
G1 X49.582 Y72.327 E2.41592
G1 X39.827 Y82.082 E.23041
G1 X-39.827 Y82.082 E1.33033
G1 X-49.582 Y72.327 E.23041
G1 X-49.582 Y-72.327 E2.41592
G1 X-39.827 Y-82.082 E.23041
G1 X39.827 Y-82.082 E1.33033
G1 X49.565 Y-72.345 E.22999
G1 X49.85 Y-72.438 F30000
;TYPE:Outer wall
G1 F2100
G1 X49.85 Y72.438 E2.41962
G1 X39.938 Y82.35 E.23412
G1 X-39.938 Y82.35 E1.33403
G1 X-49.85 Y72.438 E.23412
G1 X-49.85 Y-72.438 E2.41962
G1 X-39.938 Y-82.35 E.23412
G1 X39.938 Y-82.35 E1.33403
G1 X49.832 Y-72.456 E.2337
G1 X49.502 Y-72.123 F30000
;TYPE:Bottom surface
;WIDTH:0.300108
G1 F2985.988
G1 X39.744 Y-81.881 E.23058
G1 X39.365 Y-81.881 E.00633
G1 X49.381 Y-71.865 E.23668
G1 X49.381 Y-71.486 E.00633
G1 X38.986 Y-81.881 E.24563
G1 X38.607 Y-81.881 E.00633
G1 X49.381 Y-71.107 E.25459
G1 X49.381 Y-70.728 E.00633
G1 X38.228 Y-81.881 E.26354
G1 X37.849 Y-81.881 E.00633
G1 X49.381 Y-70.349 E.27249
G1 X49.381 Y-69.97 E.00633
G1 X44.593 Y-74.759 E.11315
G1 X43.924 Y-75.793 E.02057
G1 X43.059 Y-76.609 E.01987
G1 X42.31 Y-77.042 E.01446
G1 X37.47 Y-81.881 E.11435
G1 X37.091 Y-81.881 E.00633
G1 X41.658 Y-77.315 E.10789
G1 X41.117 Y-77.477 E.00943
G1 X36.712 Y-81.881 E.10407
G1 X36.334 Y-81.881 E.00633
G1 X40.656 Y-77.559 E.10214
G1 X40.254 Y-77.582 E.00673
G1 X35.955 Y-81.881 E.10159
G1 X35.576 Y-81.881 E.00633
G1 X39.852 Y-77.606 E.10103
G2 X39.5 Y-77.579 I-.103 J.969 E.00593
G1 X35.197 Y-81.881 E.10167
G1 X34.818 Y-81.881 E.00633
G1 X39.178 Y-77.522 E.10301
G1 X38.855 Y-77.465 E.00546
G1 X34.439 Y-81.881 E.10435
G1 X34.06 Y-81.881 E.00633
G1 X38.533 Y-77.408 E.1057
G1 X38.268 Y-77.294 E.00482
G1 X33.681 Y-81.881 E.10838
G1 X33.302 Y-81.881 E.00633
G1 X38.004 Y-77.18 E.11108
G1 X37.739 Y-77.066 E.00482
G1 X32.924 Y-81.881 E.11378
G1 X32.545 Y-81.881 E.00633
G1 X37.474 Y-76.952 E.11648
G2 X37.251 Y-76.797 I.216 J.549 E.00459
G1 X32.166 Y-81.881 E.12015
G1 X31.787 Y-81.881 E.00633
G1 X37.033 Y-76.635 E.12397
G1 X36.816 Y-76.473 E.00452
G1 X31.408 Y-81.881 E.12779
G1 X31.029 Y-81.881 E.00633
G1 X36.599 Y-76.311 E.13161
G2 X36.403 Y-76.129 I.287 J.505 E.00452
G1 X30.65 Y-81.881 E.13593
G1 X30.271 Y-81.881 E.00633
G1 X36.23 Y-75.923 E.14079
G1 X36.057 Y-75.717 E.00449
G1 X29.892 Y-81.881 E.14566
G1 X29.513 Y-81.881 E.00633
G1 X35.884 Y-75.511 E.15053
G1 X35.714 Y-75.302 E.0045
G1 X29.135 Y-81.881 E.15545
G1 X28.756 Y-81.881 E.00633
G1 X35.587 Y-75.05 E.16141
G1 X35.46 Y-74.798 E.00472
G1 X28.377 Y-81.881 E.16737
G1 X27.998 Y-81.881 E.00633
G1 X35.334 Y-74.546 E.17333
G1 X35.207 Y-74.293 E.00472
G1 X27.619 Y-81.881 E.17929
G1 X27.24 Y-81.881 E.00633
G1 X35.125 Y-73.996 E.18632
G1 X35.053 Y-73.69 E.00526
G1 X26.861 Y-81.881 E.19356
G1 X26.482 Y-81.881 E.00633
G1 X34.98 Y-73.383 E.20079
G1 X34.912 Y-73.073 E.00531
G1 X26.103 Y-81.881 E.20813
G1 X25.725 Y-81.881 E.00633
G1 X34.912 Y-72.694 E.21708
G1 X34.912 Y-72.315 E.00633
G1 X25.346 Y-81.881 E.22604
G1 X24.967 Y-81.881 E.00633
G1 X34.912 Y-71.936 E.23499
G1 X35.02 Y-71.449 E.00833
G1 X24.588 Y-81.881 E.24649
G1 X24.209 Y-81.881 E.00633
G1 X35.137 Y-70.953 E.25823
G1 X35.186 Y-70.748 E.00352
G1 X35.411 Y-70.301 E.00836
G1 X23.71 Y-82.002 E.27648
G1 E-1 F2100
;WIPE_START
G1 F2985.988
G1 X25.124 Y-80.588
;WIPE_END
G1 X30.577 Y-78.846 Z.45 F30000
G1 X44.608 Y-74.365 Z.45
G1 Z.15
G1 E1 F2100
G1 F2985.988
G1 X49.381 Y-69.591 E.11279
G1 X49.381 Y-69.212 E.00633
G1 X44.994 Y-73.599 E.10366
G1 X45.045 Y-73.17 E.00722
G1 X49.381 Y-68.834 E.10247
G1 X49.381 Y-68.455 E.00633
G1 X45.095 Y-72.741 E.10129
G3 X45.106 Y-72.352 I-.817 J.218 E.00657
G1 X49.381 Y-68.076 E.10103
G1 X49.381 Y-67.697 E.00633
G1 X45.066 Y-72.012 E.10197
G1 X45.026 Y-71.673 E.00571
G1 X49.381 Y-67.318 E.10291
G1 X49.381 Y-66.939 E.00633
G1 X44.987 Y-71.334 E.10384
G1 X44.888 Y-71.053 E.00497
G1 X49.381 Y-66.56 E.10617
G1 X49.381 Y-66.181 E.00633
G1 X44.787 Y-70.776 E.10856
G1 X44.686 Y-70.498 E.00494
G1 X49.381 Y-65.802 E.11094
G1 X49.381 Y-65.424 E.00633
G1 X44.585 Y-70.22 E.11333
G1 X44.438 Y-69.988 E.00459
G1 X49.381 Y-65.045 E.11681
G1 X49.381 Y-64.666 E.00633
G1 X44.288 Y-69.759 E.12036
G1 X44.137 Y-69.531 E.00457
G1 X49.381 Y-64.287 E.12391
G1 X49.381 Y-63.908 E.00633
G1 X43.987 Y-69.302 E.12746
G1 X43.97 Y-69.277 E.00051
G3 X43.811 Y-69.1 I-.454 J-.248 E.00402
G1 X49.381 Y-63.529 E.13163
G1 X49.381 Y-63.15 E.00633
G1 X43.616 Y-68.916 E.13624
G1 X43.421 Y-68.732 E.00448
G1 X49.381 Y-62.771 E.14084
G1 X49.381 Y-62.392 E.00633
G1 X43.226 Y-68.548 E.14545
G3 X43.024 Y-68.371 I-.475 J-.337 E.00453
G1 X49.381 Y-62.013 E.15021
G1 X49.381 Y-61.635 E.00633
G1 X42.784 Y-68.232 E.15589
G1 X42.544 Y-68.093 E.00463
G1 X49.381 Y-61.256 E.16156
G1 X49.381 Y-60.877 E.00633
G1 X42.304 Y-67.955 E.16724
G1 X42.063 Y-67.816 E.00463
G1 X49.381 Y-60.498 E.17292
G1 X49.381 Y-60.119 E.00633
G1 X41.779 Y-67.721 E.17963
G1 X41.487 Y-67.634 E.00509
G1 X49.381 Y-59.74 E.18652
G1 X49.381 Y-59.361 E.00633
G1 X41.196 Y-67.547 E.19341
G1 X40.904 Y-67.459 E.00509
G1 X49.381 Y-58.982 E.2003
G1 X49.381 Y-58.603 E.00633
G1 X40.55 Y-67.435 E.20868
G1 X40.192 Y-67.414 E.00599
G1 X49.381 Y-58.225 E.21714
G1 X49.381 Y-57.846 E.00633
G1 X39.834 Y-67.393 E.2256
G3 X39.411 Y-67.437 I-.119 J-.913 E.00716
G1 X49.381 Y-57.467 E.23559
G1 X49.381 Y-57.088 E.00633
G1 X38.951 Y-67.518 E.24646
G1 X38.531 Y-67.592 E.00713
G1 X38.473 Y-67.617 E.00105
G1 X49.381 Y-56.709 E.25775
G1 X49.381 Y-56.33 E.00633
G1 X37.576 Y-68.135 E.27895
G1 E-1 F2100
;WIPE_START
G1 F2985.988
G1 X38.99 Y-66.721
;WIPE_END
G1 X42.966 Y-62.602 Z.45 F30000
G1 X49.502 Y-55.831 Z.45
G1 Z.15
G1 E1 F2100
G1 F2985.988
G1 X23.451 Y-81.881 E.61555
G1 X23.072 Y-81.881 E.00633
G1 X49.381 Y-55.572 E.62165
G1 X49.381 Y-55.193 E.00633
G1 X22.693 Y-81.881 E.6306
G1 X22.314 Y-81.881 E.00633
G1 X49.381 Y-54.814 E.63956
G1 X49.381 Y-54.436 E.00633
G1 X21.936 Y-81.881 E.64851
G1 X21.557 Y-81.881 E.00633
G1 X49.381 Y-54.057 E.65746
G1 X49.381 Y-53.678 E.00633
G1 X21.178 Y-81.881 E.66642
G1 X20.799 Y-81.881 E.00633
G1 X49.381 Y-53.299 E.67537
G1 X49.381 Y-52.92 E.00633
G1 X20.42 Y-81.881 E.68432
M73 P0 R267
G1 X20.041 Y-81.881 E.00633
G1 X49.381 Y-52.541 E.69327
G1 X49.381 Y-52.162 E.00633
G1 X19.662 Y-81.881 E.70223
G1 X19.283 Y-81.881 E.00633
G1 X49.381 Y-51.783 E.71118
G1 X49.381 Y-51.404 E.00633
G1 X18.904 Y-81.881 E.72013
G1 X18.526 Y-81.881 E.00633
G1 X49.381 Y-51.026 E.72909
G1 X49.381 Y-50.647 E.00633
G1 X18.147 Y-81.881 E.73804
G1 X17.768 Y-81.881 E.00633
G1 X49.381 Y-50.268 E.74699
G1 X49.381 Y-49.889 E.00633
G1 X17.389 Y-81.881 E.75594
G1 X17.01 Y-81.881 E.00633
G1 X49.381 Y-49.51 E.7649
G1 X49.381 Y-49.131 E.00633
G1 X16.631 Y-81.881 E.77385
G1 X16.252 Y-81.881 E.00633
G1 X49.381 Y-48.752 E.7828
G1 X49.381 Y-48.373 E.00633
G1 X15.873 Y-81.881 E.79176
G1 X15.494 Y-81.881 E.00633
G1 X49.381 Y-47.994 E.80071
G1 X49.381 Y-47.616 E.00633
G1 X15.116 Y-81.881 E.80966
G1 X14.737 Y-81.881 E.00633
G1 X49.381 Y-47.237 E.81861
G1 X49.381 Y-46.858 E.00633
G1 X14.358 Y-81.881 E.82757
G1 X13.979 Y-81.881 E.00633
G1 X49.381 Y-46.479 E.83652
G1 X49.381 Y-46.1 E.00633
G1 X13.6 Y-81.881 E.84547
G1 X13.221 Y-81.881 E.00633
G1 X49.381 Y-45.721 E.85442
G1 X49.381 Y-45.342 E.00633
G1 X12.842 Y-81.881 E.86338
G1 X12.463 Y-81.881 E.00633
G1 X49.381 Y-44.963 E.87233
G1 X49.381 Y-44.584 E.00633
G1 X12.084 Y-81.881 E.88128
G1 X11.705 Y-81.881 E.00633
G1 X49.381 Y-44.205 E.89024
G1 X49.381 Y-43.827 E.00633
G1 X11.327 Y-81.881 E.89919
G1 X10.948 Y-81.881 E.00633
G1 X49.381 Y-43.448 E.90814
G1 X49.381 Y-43.069 E.00633
G1 X10.569 Y-81.881 E.91709
